src/images/pages/dmt5_signals/provider_performance.svg

<svg width="64" height="64" viewBox="0 0 64 64" fill="none" xmlns="http://www.w3.org/2000/svg">
<path d="M57.9279 8.93786H46.471V5.17728C46.471 4.65982 46.0516 4.2403 45.534 4.2403C45.0164 4.2403 44.597 4.65982 44.597 5.17728V8.93786H40.7158C40.1982 8.93786 39.7788 9.35738 39.7788 9.87485C39.7788 10.3923 40.1982 10.8118 40.7158 10.8118H44.597V14.7794H43.8938C42.9118 14.7794 42.1129 15.5784 42.1129 16.5602V27.5909C42.1129 28.5729 42.9118 29.3717 43.8938 29.3717H44.597V36.8053C44.597 37.3228 45.0164 37.7423 45.534 37.7423C46.0516 37.7423 46.471 37.3228 46.471 36.8053V29.3717H47.1742C48.1561 29.3717 48.955 28.5728 48.955 27.5909V16.5602C48.955 15.5782 48.1561 14.7794 47.1742 14.7794H46.471V10.8118H57.9279C60.1793 10.8118 62.0112 12.6436 62.0112 14.8951V46.9645H1.98824V14.8952C1.98824 12.6437 3.81999 10.812 6.07151 10.812H22.4966V12.6406H21.7933C20.8114 12.6406 20.0125 13.4395 20.0125 14.4214V25.4521C20.0125 26.4341 20.8115 27.2329 21.7933 27.2329H22.4966V35.5125C22.4966 36.03 22.9161 36.4495 23.4336 36.4495C23.951 36.4495 24.3705 36.03 24.3705 35.5125V27.2329H25.0738C26.0557 27.2329 26.8546 26.434 26.8546 25.4521V14.4214C26.8546 13.4394 26.0556 12.6406 25.0738 12.6406H24.3705V10.8118H28.2518C28.7693 10.8118 29.1888 10.3923 29.1888 9.87485C29.1888 9.35738 28.7693 8.93786 28.2518 8.93786H24.3705V8.47511C24.3705 7.95764 23.951 7.53812 23.4336 7.53812C22.9161 7.53812 22.4966 7.95764 22.4966 8.47511V8.93786H6.07151C2.78668 8.93786 0.114258 11.6103 0.114258 14.8951V47.9015C0.114258 51.1863 2.78668 53.8588 6.07151 53.8588H20.3349V58.6229L17.3149 62.126H16.1162C15.5987 62.126 15.1792 62.5455 15.1792 63.063C15.1792 63.5805 15.5987 64 16.1162 64H47.7968C48.3144 64 48.7338 63.5805 48.7338 63.063C48.7338 62.5455 48.3144 62.126 47.7968 62.126H46.6844L43.6644 58.6229V53.8588H57.9279C61.2127 53.8588 63.8851 51.1863 63.8851 47.9015V14.8952C63.8851 11.6104 61.2127 8.93786 57.9279 8.93786ZM47.081 27.498H43.987V16.6535H47.0812V27.498H47.081ZM24.9806 25.3589H21.8864V14.5146H24.9806V25.3589ZM57.9279 51.9848H38.9643C38.4467 51.9848 38.0274 52.4043 38.0274 52.9218C38.0274 53.4392 38.4467 53.8588 38.9643 53.8588H41.7904V58.0341H39.4564C38.9389 58.0341 38.5195 58.4536 38.5195 58.9711C38.5195 59.4886 38.9389 59.9081 39.4564 59.9081H42.298L44.2101 62.126H19.7892L21.7012 59.9081H24.5428C25.0603 59.9081 25.4798 59.4886 25.4798 58.9711C25.4798 58.4536 25.0603 58.0341 24.5428 58.0341H22.2088V53.8588H34.9711C35.4887 53.8588 35.9081 53.4392 35.9081 52.9218C35.9081 52.4043 35.4887 51.9848 34.9711 51.9848H6.07151C4.14244 51.9848 2.5227 50.6398 2.09793 48.8385H61.9013C61.4767 50.6398 59.857 51.9848 57.9279 51.9848Z" fill="#2A3052"/>
<path d="M9.8989 27.3554C9.38144 27.3554 8.96191 27.7749 8.96191 28.2924V30.5544C8.96191 31.5364 9.76073 32.3352 10.7427 32.3352H11.4459V37.3251C11.4459 37.8426 11.8655 38.2621 12.3829 38.2621C12.9004 38.2621 13.3199 37.8426 13.3199 37.3251V32.3352H14.0232C15.0051 32.3352 15.8039 31.5364 15.8039 30.5544V19.5237C15.8039 18.5417 15.005 17.7428 14.0232 17.7428H13.3199V16.2441C13.3199 15.7266 12.9004 15.3071 12.3829 15.3071C11.8655 15.3071 11.4459 15.7266 11.4459 16.2441V17.7428H10.7427C9.76073 17.7428 8.96191 18.5417 8.96191 19.5237V24.2993C8.96191 24.8168 9.38144 25.2363 9.8989 25.2363C10.4164 25.2363 10.8359 24.8168 10.8359 24.2993V19.6169H12.3818H12.383C12.383 19.6169 12.3838 19.6169 12.3843 19.6169H13.9302V30.4613H10.8359V28.2925C10.8359 27.7749 10.4164 27.3554 9.8989 27.3554Z" fill="#2A3052"/>
<path d="M32.8433 25.3788H33.5466V30.3686C33.5466 30.886 33.966 31.3056 34.4836 31.3056C35.0012 31.3056 35.4206 30.886 35.4206 30.3686V25.3788H36.1239C37.1057 25.3788 37.9046 24.5799 37.9046 23.5979V16.2485C37.9046 15.7311 37.4852 15.3115 36.9677 15.3115C36.4501 15.3115 36.0307 15.7311 36.0307 16.2485V23.5048H32.9365V6.53869H36.0307V12.2554C36.0307 12.7729 36.4501 13.1924 36.9677 13.1924C37.4852 13.1924 37.9046 12.7729 37.9046 12.2554V6.44549C37.9046 5.46365 37.1057 4.66471 36.1239 4.66471H35.4206V0.936989C35.4206 0.419521 35.0012 0 34.4836 0C33.966 0 33.5466 0.419521 33.5466 0.936989V4.66471H32.8433C31.8613 4.66471 31.0625 5.46365 31.0625 6.44549V23.5979C31.0625 24.58 31.8613 25.3788 32.8433 25.3788Z" fill="#2A3052"/>
<path d="M50.9415 25.6882C51.1108 26.0023 51.4337 26.1807 51.7671 26.1807C51.9171 26.1807 52.0696 26.1444 52.211 26.0682L56.527 23.7411L56.2165 24.5559C56.0323 25.0395 56.275 25.5809 56.7586 25.7651C56.8684 25.8069 56.9811 25.8267 57.0921 25.8267C57.4695 25.8267 57.8254 25.5969 57.9678 25.2231L59.0228 22.4538C59.207 21.9702 58.9643 21.4289 58.4807 21.2446L55.5414 20.1248C55.0579 19.9407 54.5165 20.1833 54.3322 20.6669C54.1479 21.1505 54.3907 21.6919 54.8743 21.8761L55.5558 22.1357L51.3216 24.4187C50.8661 24.6644 50.6959 25.2327 50.9415 25.6882Z" fill="#2A3052"/>
<path d="M5.65437 43.996C5.80654 44.3516 6.15248 44.5646 6.51615 44.5646C6.63909 44.5646 6.76414 44.5402 6.88445 44.4887L18.9751 39.3142L20.0739 42.193C20.1701 42.445 20.3701 42.6432 20.6228 42.7372C20.8755 42.831 21.1565 42.8117 21.3939 42.6836L41.3685 31.9138C41.824 31.6682 41.9942 31.0999 41.7486 30.6444C41.5031 30.189 40.9349 30.0187 40.4791 30.2644L21.444 40.5275L20.3782 37.7349C20.2873 37.4967 20.1032 37.3058 19.8685 37.2063C19.6338 37.1068 19.3686 37.1074 19.1342 37.2076L6.1471 42.7658C5.67149 42.9696 5.45086 43.5203 5.65437 43.996Z" fill="#2A3052"/>
</svg>

<svg width="64" height="64" fill="none" xmlns="http://www.w3.org/2000/svg"><path d="M57.928 8.938H46.47v-3.76a.937.937 0 10-1.874 0v3.76h-3.881a.937.937 0 100 1.874h3.881v3.967h-.703c-.982 0-1.781.8-1.781 1.781v11.03c0 .983.799 1.782 1.78 1.782h.704v7.433a.937.937 0 101.874 0v-7.433h.703c.982 0 1.781-.8 1.781-1.781V16.56c0-.983-.799-1.782-1.78-1.782h-.704v-3.967h11.457a4.088 4.088 0 014.083 4.083v32.07H1.988v-32.07a4.088 4.088 0 014.084-4.083h16.425v1.829h-.704c-.982 0-1.78.799-1.78 1.78v11.031c0 .982.798 1.78 1.78 1.78h.704v8.28a.937.937 0 101.873 0v-8.28h.704c.982 0 1.78-.798 1.78-1.78v-11.03c0-.983-.798-1.781-1.78-1.781h-.704v-1.83h3.882a.937.937 0 100-1.873H24.37v-.463a.937.937 0 10-1.874 0v.463H6.072a5.964 5.964 0 00-5.958 5.957v33.007a5.964 5.964 0 005.958 5.957h14.263v4.764l-3.02 3.503h-1.199a.937.937 0 100 1.874h31.68a.937.937 0 100-1.874h-1.112l-3.02-3.503v-4.764h14.264a5.964 5.964 0 005.957-5.958V14.895a5.964 5.964 0 00-5.957-5.957zM47.08 27.498h-3.094V16.653h3.094v10.845zm-22.1-2.14h-3.095V14.516h3.095v10.844zm32.947 26.627H38.964a.937.937 0 100 1.874h2.826v4.175h-2.334a.937.937 0 000 1.874h2.842l1.912 2.218H19.79l1.911-2.218h2.842a.937.937 0 100-1.874h-2.334V53.86H34.97a.937.937 0 100-1.874h-28.9a4.09 4.09 0 01-3.973-3.146H61.9a4.09 4.09 0 01-3.973 3.146z" fill="#2A3052"/><path d="M9.899 27.355a.937.937 0 00-.937.937v2.262c0 .982.799 1.781 1.78 1.781h.704v4.99a.937.937 0 001.874 0v-4.99h.703c.982 0 1.78-.799 1.78-1.78V19.523c0-.982-.798-1.781-1.78-1.781h-.703v-1.499a.937.937 0 10-1.874 0v1.499h-.703c-.982 0-1.781.799-1.781 1.78V24.3a.937.937 0 001.874 0v-4.682h3.094V30.46h-3.094v-2.168a.937.937 0 00-.937-.938zM32.843 25.379h.704v4.99a.937.937 0 101.874 0v-4.99h.703c.982 0 1.78-.8 1.78-1.781v-7.35a.937.937 0 10-1.873 0v7.257h-3.094V6.539h3.094v5.716a.937.937 0 101.874 0v-5.81c0-.981-.8-1.78-1.781-1.78h-.703V.937a.937.937 0 10-1.874 0v3.728h-.704c-.982 0-1.78.799-1.78 1.78v17.153c0 .982.798 1.78 1.78 1.78zM50.941 25.688a.937.937 0 001.27.38l4.316-2.327-.31.815a.937.937 0 001.75.667l1.056-2.77a.937.937 0 00-.542-1.208l-2.94-1.12a.937.937 0 00-.667 1.751l.682.26-4.234 2.283a.937.937 0 00-.38 1.27zM5.654 43.996a.937.937 0 001.23.493l12.091-5.175 1.099 2.879a.937.937 0 001.32.49l19.974-10.77a.937.937 0 10-.889-1.649L21.444 40.528l-1.066-2.793a.937.937 0 00-1.244-.527L6.147 42.766a.937.937 0 00-.493 1.23z" fill="#2A3052"/></svg>
